X: 16649
T: Hanly's
R: reel
M: 4/4
K: Dmajor
|:A2FA B2AB|defe dB~B2|A2FA B2AB|dBAF FEE2:|
faab afef|a2ba afe2|faab afef|defe dB~B2|
faab afef|a2ba afea|b2fb bafb|afef dB~B2||

